src/24/panel/screencloud-idle.svg

<svg xmlns="http://www.w3.org/2000/svg" width="24" height="24" version="1.1">
 <defs>
  <style id="current-color-scheme" type="text/css">
   .ColorScheme-Text { color:#dfdfdf; } .ColorScheme-Highlight { color:#4285f4; }
  </style>
 </defs>
 <path style="fill:currentColor" class="ColorScheme-Text" d="M 9.5,6 A 5.5,5.5 0 0 0 4,11.5 5.5,5.5 0 0 0 4.046875,12.158203 3,3 0 0 0 2,15 3,3 0 0 0 5,18 l 14,0 A 3,3 0 0 0 22,15 3,3 0 0 0 19.992188,12.171875 4,4 0 0 0 20,12 4,4 0 0 0 16,8 4,4 0 0 0 14.097656,8.4863281 5.5,5.5 0 0 0 9.5,6 Z M 6.984375,8 C 7.537375,8 8,8.448 8,9 8,9.552 7.537375,10 6.984375,10 6.431375,10 6,9.552 6,9 6,8.448 6.432275,8 6.984375,8 Z M 12,9 c 2.209139,0 4,1.790861 4,4 0,2.209139 -1.790861,4 -4,4 C 9.790861,17 8,15.209139 8,13 8,10.790861 9.790861,9 12,9 Z m 0,2 c -1.104569,0 -2,0.895431 -2,2 0,1.104569 0.895431,2 2,2 1.104569,0 2,-0.895431 2,-2 0,-1.104569 -0.895431,-2 -2,-2 z"/>
</svg>

<svg xmlns="http://www.w3.org/2000/svg" width="24" height="24"><defs><style id="current-color-scheme" type="text/css">.ColorScheme-Text{color:#dfdfdf;}.ColorScheme-Highlight{color:#5294e2;}</style></defs><defs><style id="current-color-scheme" type="text/css"></style></defs><path d="M9.5 6A5.5 5.5 0 0 0 4 11.5a5.5 5.5 0 0 0 .047.658A3 3 0 0 0 2 15a3 3 0 0 0 3 3h14a3 3 0 0 0 3-3 3 3 0 0 0-2.008-2.828A4 4 0 0 0 20 12a4 4 0 0 0-4-4 4 4 0 0 0-1.902.486A5.5 5.5 0 0 0 9.5 6zM6.984 8C7.537 8 8 8.448 8 9s-.463 1-1.016 1A.987.987 0 0 1 6 9c0-.552.432-1 .984-1zM12 9a4 4 0 1 1 0 8 4 4 0 0 1 0-8zm0 2a2 2 0 1 0 0 4 2 2 0 0 0 0-4z" fill="currentColor" class="ColorScheme-Text"/></svg>
